assets/iconset/arrow_expand.svg

<?xml version="1.0" encoding="UTF-8" standalone="no"?>
<!-- Generator: IcoMoon.io -->

<svg
   xmlns:dc="http://purl.org/dc/elements/1.1/"
   xmlns:cc="http://creativecommons.org/ns#"
   xmlns:rdf="http://www.w3.org/1999/02/22-rdf-syntax-ns#"
   xmlns:svg="http://www.w3.org/2000/svg"
   xmlns="http://www.w3.org/2000/svg"
   xmlns:sodipodi="http://sodipodi.sourceforge.net/DTD/sodipodi-0.dtd"
   xmlns:inkscape="http://www.inkscape.org/namespaces/inkscape"
   width="32"
   height="32"
   viewBox="0 0 32 32"
   fill="#000000"
   version="1.1"
   id="svg6"
   sodipodi:docname="arrow_expand.svg"
   inkscape:version="0.92.1 r15371">
  <metadata
     id="metadata12">
    <rdf:RDF>
      <cc:Work
         rdf:about="">
        <dc:format>image/svg+xml</dc:format>
        <dc:type
           rdf:resource="http://purl.org/dc/dcmitype/StillImage" />
        <dc:title></dc:title>
      </cc:Work>
    </rdf:RDF>
  </metadata>
  <defs
     id="defs10" />
  <sodipodi:namedview
     pagecolor="#ffffff"
     bordercolor="#666666"
     borderopacity="1"
     objecttolerance="10"
     gridtolerance="10"
     guidetolerance="10"
     inkscape:pageopacity="0"
     inkscape:pageshadow="2"
     inkscape:window-width="1920"
     inkscape:window-height="1016"
     id="namedview8"
     showgrid="false"
     inkscape:zoom="7.375"
     inkscape:cx="16.271186"
     inkscape:cy="16"
     inkscape:window-x="0"
     inkscape:window-y="27"
     inkscape:window-maximized="1"
     inkscape:current-layer="svg6" />
  <g
     id="g4"
     transform="matrix(0.56307319,0.56307319,-0.56307319,0.56307319,15.999658,-2.0183422)">
    <path
       d="M 29.922,2.618 C 29.82,2.374 29.626,2.178 29.382,2.078 29.26,2.026 29.13,2 29,2 h -8 c -0.552,0 -1,0.448 -1,1 0,0.552 0.448,1 1,1 h 5.586 l -8.294,8.292 c -0.39,0.39 -0.39,1.024 0,1.414 0.39,0.39 1.024,0.39 1.414,0 L 28,5.414 V 11 c 0,0.552 0.448,1 1,1 0.552,0 1,-0.448 1,-1 V 3 3 C 30,2.87 29.974,2.74 29.922,2.618 Z M 3,20 c -0.552,0 -1,0.448 -1,1 v 8 c 0,0.002 0,0.002 0,0.004 0,0.13 0.026,0.258 0.076,0.378 0.048,0.118 0.12,0.224 0.208,0.314 0.004,0.004 0.004,0.008 0.008,0.012 0.002,0.002 0.006,0.002 0.008,0.006 0.09,0.088 0.198,0.162 0.316,0.21 C 2.74,29.974 2.87,30 3,30 h 8 c 0.552,0 1,-0.448 1,-1 0,-0.552 -0.448,-1 -1,-1 H 5.414 l 8.292,-8.292 c 0.39,-0.39 0.39,-1.024 0,-1.414 -0.39,-0.39 -1.024,-0.39 -1.414,0 L 4,26.586 V 21 C 4,20.448 3.552,20 3,20 Z"
       id="path2"
       inkscape:connector-curvature="0" />
  </g>
</svg>

<?xml version="1.0" encoding="utf-8"?> <!-- Generator: IcoMoon.io --> <!DOCTYPE svg PUBLIC "-//W3C//DTD SVG 1.1//EN" "http://www.w3.org/Graphics/SVG/1.1/DTD/svg11.dtd"> <svg width="32" height="32" viewBox="0 0 32 32" xmlns="http://www.w3.org/2000/svg" xmlns:xlink="http://www.w3.org/1999/xlink" fill="#000000"><g><path d="M 29.922,2.618c-0.102-0.244-0.296-0.44-0.54-0.54C 29.26,2.026, 29.13,2, 29,2l-8,0 C 20.448,2, 20,2.448, 20,3 C 20,3.552, 20.448,4, 21,4l 5.586,0 L 18.292,12.292c-0.39,0.39-0.39,1.024,0,1.414c 0.39,0.39, 1.024,0.39, 1.414,0L 28,5.414L 28,11 C 28,11.552, 28.448,12, 29,12S 30,11.552, 30,11l0-8 l0,0C 30,2.87, 29.974,2.74, 29.922,2.618zM 3,20C 2.448,20, 2,20.448, 2,21l0,8 c0,0.002,0,0.002,0,0.004c0,0.13, 0.026,0.258, 0.076,0.378 c 0.048,0.118, 0.12,0.224, 0.208,0.314c 0.004,0.004, 0.004,0.008, 0.008,0.012c 0.002,0.002, 0.006,0.002, 0.008,0.006 c 0.090,0.088, 0.198,0.162, 0.316,0.21C 2.74,29.974, 2.87,30, 3,30l 8,0 C 11.552,30, 12,29.552, 12,29C 12,28.448, 11.552,28, 11,28L 5.414,28 l 8.292-8.292c 0.39-0.39, 0.39-1.024,0-1.414c-0.39-0.39-1.024-0.39-1.414,0L 4,26.586L 4,21 C 4,20.448, 3.552,20, 3,20z"></path></g></svg>
